src/images/icons/illustratorIcon.svg

<?xml version="1.0" encoding="UTF-8"?>
<svg enable-background="new 770 -939 2500 2438" version="1.1" viewBox="770 -939 2500 2438" xml:space="preserve" xmlns="http://www.w3.org/2000/svg">
<style type="text/css">
	.st0{fill:#FF7F18;}
</style>
<path class="st0" d="m874.2-834.5h2291.7v2229.2h-2291.7v-2229.2zm-104.2 2333.3h2500v-2437.6h-2500v2437.6zm1637.5-1568.9c0-8.3 3.1-12.5 12.5-12.5h163.5c8.3 0 12.5 3.1 12.5 12.5v821.9c0 8.3-2.1 12.5-12.5 12.5h-161.5c-10.4 0-13.5-5.2-13.5-13.5v-820.9h-1zm-11.5-236.4c0-66.7 46.9-106.2 106.3-106.2 63.5 0 106.2 42.7 106.2 106.2 0 68.7-44.8 106.2-108.3 106.2-60.4 0-104.2-37.5-104.2-106.2zm-468.7 579.3c-29.2-115.6-97.9-367.7-124-489.6h-2.1c-21.9 121.9-77.1 328.1-120.8 489.6h246.9zm-289.6 168.7l-82.3 312.5c-2.1 8.3-5.2 10.4-15.6 10.4h-153.1c-10.4 0-12.5-3.1-10.4-15.6l295.8-1035.4c5.2-18.7 8.3-35.4 10.4-86.5 0-7.3 3.1-10.4 8.3-10.4h218.8c7.3 0 10.4 2.1 12.5 10.4l331.2 1124c2.1 8.3 0 13.5-8.3 13.5h-172.9c-8.3 0-13.5-2.1-15.6-9.4l-85.5-313.5h-333.3z"/>
</svg>

<?xml version="1.0" encoding="utf-8"?>
<!-- Generator: Adobe Illustrator 19.0.0, SVG Export Plug-In . SVG Version: 6.00 Build 0)  -->
<svg version="1.1" id="Layer_1" xmlns="http://www.w3.org/2000/svg" xmlns:xlink="http://www.w3.org/1999/xlink" x="0px" y="0px"
	 viewBox="770 -939 2500 2438" style="enable-background:new 770 -939 2500 2438;" xml:space="preserve">
<style type="text/css">
	.st0{fill:#FF7F18;}
</style>
<path class="st0" d="M874.2-834.5h2291.7v2229.2H874.2V-834.5z M770,1498.8h2500V-938.8H770V1498.8z M2407.5-70.1
	c0-8.3,3.1-12.5,12.5-12.5h163.5c8.3,0,12.5,3.1,12.5,12.5v821.9c0,8.3-2.1,12.5-12.5,12.5H2422c-10.4,0-13.5-5.2-13.5-13.5V-70.1
	H2407.5L2407.5-70.1z M2396-306.5c0-66.7,46.9-106.2,106.3-106.2c63.5,0,106.2,42.7,106.2,106.2c0,68.7-44.8,106.2-108.3,106.2
	C2439.8-200.3,2396-237.8,2396-306.5z M1927.3,272.8c-29.2-115.6-97.9-367.7-124-489.6h-2.1c-21.9,121.9-77.1,328.1-120.8,489.6
	H1927.3z M1637.7,441.5L1555.4,754c-2.1,8.3-5.2,10.4-15.6,10.4h-153.1c-10.4,0-12.5-3.1-10.4-15.6l295.8-1035.4
	c5.2-18.7,8.3-35.4,10.4-86.5c0-7.3,3.1-10.4,8.3-10.4h218.8c7.3,0,10.4,2.1,12.5,10.4l331.2,1124c2.1,8.3,0,13.5-8.3,13.5h-172.9
	c-8.3,0-13.5-2.1-15.6-9.4L1971,441.5H1637.7L1637.7,441.5z"/>
</svg>
